X: 615
T: Tiao nx
L: 1/8
M: 2/4
K: G
B B/ A/ B A [I:setbarnb 1]| 
B2B2 | 
B B/ A/ B A | 
G2G2 | 
B AB2 | 
A B A E | 
G> A B B | 
A B A E | 
G A G E | 
D Dz2 | 
z e d d | 
z e d d | 
z e d d | 
z e d d |]

@@@ Tune index: 9489
